packages/react-icons/icons/truck-half-full.svg

<svg width="25" height="25" viewBox="0 0 25 25" xmlns="http://www.w3.org/2000/svg"><path fill-rule="evenodd" clip-rule="evenodd" d="M3.73728 5.9072C3.8892 5.75527 4.09526 5.66992 4.31012 5.66992H15.2752C15.7226 5.66992 16.0853 6.03263 16.0853 6.48004V8.93341H17.2091C17.4226 8.93341 17.6274 9.01769 17.7791 9.16792L21.2599 12.6151C21.4135 12.7672 21.4999 12.9745 21.4999 13.1907L21.5 15.5029C21.5 15.7178 21.4147 15.9238 21.2627 16.0758C21.1108 16.2277 20.9047 16.3131 20.6899 16.3131H20.5683C20.589 16.4455 20.5997 16.5813 20.5997 16.7196C20.5997 18.1613 19.431 19.33 17.9893 19.33C16.5477 19.33 15.3789 18.1613 15.3789 16.7196C15.3789 16.5813 15.3897 16.4455 15.4104 16.3131H10.4563C10.477 16.4455 10.4877 16.5813 10.4877 16.7196C10.4877 18.1613 9.31902 19.33 7.87735 19.33C6.43567 19.33 5.26696 18.1613 5.26696 16.7196C5.26696 16.5813 5.27771 16.4455 5.29842 16.3131H4.31019C3.86278 16.3131 3.50007 15.9504 3.50007 15.5029L3.5 6.48005C3.5 6.26519 3.58535 6.05913 3.73728 5.9072ZM19.8797 14.6928H19.6346C19.1856 14.3279 18.613 14.1092 17.9893 14.1092C17.3657 14.1092 16.7931 14.3279 16.3441 14.6928H16.0853V10.5537H16.8758L19.8797 13.5286L19.8797 14.6928ZM14.4651 14.6928L9.52259 14.6928C9.0736 14.3279 8.50102 14.1092 7.87735 14.1092C7.25367 14.1092 6.68109 14.3279 6.2321 14.6928H5.12031L5.1203 14.078L11.8906 7.30726C11.8962 7.30162 11.9017 7.29592 11.9072 7.29016H14.4651V14.6928ZM6.8872 16.7196C6.8872 16.1727 7.3305 15.7294 7.87735 15.7294C8.42419 15.7294 8.86749 16.1727 8.86749 16.7196C8.86749 17.2664 8.42419 17.7097 7.87735 17.7097C7.3305 17.7097 6.8872 17.2664 6.8872 16.7196ZM16.9992 16.7196C16.9992 16.1727 17.4425 15.7294 17.9893 15.7294C18.5362 15.7294 18.9795 16.1727 18.9795 16.7196C18.9795 17.2664 18.5362 17.7097 17.9893 17.7097C17.4425 17.7097 16.9992 17.2664 16.9992 16.7196Z"/></svg>

<svg xmlns="http://www.w3.org/2000/svg" width="25" height="25"><path fill-rule="evenodd" d="M3.737 5.907a.81.81 0 0 1 .573-.237h10.965a.81.81 0 0 1 .81.81v2.453h1.124a.81.81 0 0 1 .57.235l3.48 3.447a.81.81 0 0 1 .24.576l.001 2.312a.81.81 0 0 1-.81.81h-.122a2.61 2.61 0 1 1-5.158 0h-4.954a2.61 2.61 0 1 1-5.158 0H4.31a.81.81 0 0 1-.81-.81V6.48a.81.81 0 0 1 .237-.573Zm16.143 8.786h-.245a2.6 2.6 0 0 0-1.646-.584 2.6 2.6 0 0 0-1.645.584h-.259v-4.14h.79l3.005 2.976v1.164Zm-5.415 0H9.523a2.6 2.6 0 0 0-1.646-.584 2.6 2.6 0 0 0-1.645.584H5.12v-.615l6.77-6.77.017-.018h2.558v7.403ZM6.887 16.72a.99.99 0 1 1 1.98 0 .99.99 0 0 1-1.98 0Zm10.112 0a.99.99 0 1 1 1.98 0 .99.99 0 0 1-1.98 0Z" clip-rule="evenodd"/></svg>
